X: 199
T: 200. Christus ist erstanden, hat \"uberwunden
N: Derived from chor200.krn
C: Johann Sebastian Bach
%%abc-version 2.0
%%abcx-abcm2ps-target-version 5.9.1 (29 Sep 2008)
%%abc-creator hum2abc beta
%%abcx-conversion-date 2019/03/11 17:28:18
%%abc-edited-by Craig Stuart Sapp
%%humdrum-veritas 1877751818
%%humdrum-veritas-data 4082881923
%%
%%barnumbers 0
L: 1/4
M: C
%%staves [1 2 3 4]
V: 1 clef=treble
V: 2 clef=treble
V: 3 clef=treble-8
V: 4 clef=bass
K: C
[V:1] cGAB | 
[V:2] GG-G/^F/G | 
[V:3] edcd | 
[V:4] CB,A,G,/F,/ | 
[V:1] c2!fermata!cG | 
[V:2] G3/=F/- F/!fermata!E/E- | 
[V:3] c/_B/A!fermata!Gc | 
[V:4] E,F,!fermata!C,C/_B,/ | 
[V:1] c_BA2 | 
[V:2] E/^F/GGF | 
[V:3] cd_ed/c/ | 
[V:4] A,G,C,D, | 
[V:1] !fermata!G2GA | 
[V:2] !fermata!D2D/_ED/- | 
[V:3] !fermata!_B2_Bc | 
[V:4] !fermata!G,,2G,^F, | 
[V:1] _BcBA | 
[V:2] D/_B/ A/G/ ^F/GF/ | 
[V:3] _B/G/_ed-d3//c// | 
[V:4] G,C,D,D,, | 
[V:1] !fermata!G2Gc | 
[V:2] !fermata!D2=E/=F/G | 
[V:3] !fermata!_B2c-c/d/ | 
[V:4] !fermata!G,,2C,/D,/E,/F,/ | 
[V:1] cB!fermata!c2 | 
[V:2] GG!fermata!G2 | 
[V:3] e/d//c// d/f/- f/e//d//!fermata!e | 
[V:4] G,G,,!fermata!C,2 | 
[V:1] ccdd | 
[V:2] AA/G/ F/G/A- | 
[V:3] fff/e/ d/e/ | 
[V:4] F,/G,/F,/E,/ D,/E,/F,/G,/ | 
[V:1] c_B!fermata!A2 | 
[V:2] A_B/G/!fermata!F2 | 
[V:3] f-f/e/!fermata!c2 | 
[V:4] A,/F,/G,/C,/!fermata!F,2 | 
[V:1] GA_BA | 
[V:2] EE/^F/G3/F/ | 
[V:3] ccd_e/d//c// | 
[V:4] C/_B,/A,G,/_B,,/ C,/D,/ | 
[V:1] !fermata!G2_Bc | 
[V:2] !fermata!G2D/_B/- B/A/ | 
[V:3] !fermata!_B2_B/d/f | 
[V:4] !fermata!_E,2G,F, | 
[V:1] d_e/d/c2 | 
[V:2] _B2BA | 
[V:3] f_e/f/ g/_e/ c/f/ | 
[V:4] _B,/A,/G,/F,/ _E,/C,/F, | 
[V:1] !fermata!d2dc | 
[V:2] !fermata!_B2B3/A/ | 
[V:3] !fermata!f2ff | 
[V:4] !fermata!_B,,2_B,F, | 
[V:1] dc_BG | 
[V:2] _BAG=E | 
[V:3] f_e/d/dc | 
[V:4] _B,/A,/G,/^F,/ G,/A,/B,/C/ | 
[V:1] A=B!fermata!c2 |]  
[V:2] F/E/D/F/!fermata!E2 |]  
[V:3] cG!fermata!G2 |]  
[V:4] =F,G,!fermata!C,2 |]  



